app/dist/common/images/coats-plc.svg

<svg fill="none" height="18" viewBox="0 0 18 18" width="18" xmlns="http://www.w3.org/2000/svg"><path d="m0 0h18v18h-18z" fill="#005da9"/><g fill="#fff"><path d="m12.4378 9.82994-.0524.16993c-.1749-.19404-.2901-.56166-.2901-.94974 0-.40687.1506-.74487.3429-.93892-.0524-.21282-.1245-.41097-.2061-.61127-.3555.28793-.613.84287-.613 1.55019 0 .68853.2539 1.24567.5977 1.53977-.0933.2316-.2098.4507-.3438.6573-.4138-.2003-.9791-.1064-1.556.2504-.58273.363-.94403.6259-.98483 1.1141-.22473.025-.45126.025-.67599 0-.04079-.4882-.40209-.7511-.98484-1.1141-.57693-.3568-1.14219-.457-1.55595-.2504-.13403-.2066-.25058-.4257-.34382-.6573.34382-.2941.6094-.85124.6094-1.53977 0-.70106-.27723-1.26226-.63271-1.55019-.08159.2003-.15152.39845-.19814.61127.19231.19405.35465.53205.35465.93892 0 .38808-.15651.74944-.33134.94974-.02331-.09389-.02952-.12695-.05245-.2058-.05807-.19971-.31119-.34426-.52098-.29419.09324 1.28322.85315 2.29182 1.78556 2.98042.12237-.1377.13403-.3443-.03497-.4945-.08741-.0751-.169-.1565-.25058-.2441.25641-.1002.60023-.0313.93823.1815.34382.2128.57109.2816.61771.5758-.10489-.0313-.20396-.0626-.30303-.1064-.20979-.0814-.37879.0188-.43123.2066.50699.2566 1.06643.4006 1.66666.4006.59441 0 1.15965-.144 1.66665-.4006-.0524-.1878-.2214-.2942-.4312-.2066-.0991.0376-.1982.0751-.30305.1064.0408-.2879.26805-.3567.61775-.5758.3438-.2128.6876-.2817.9382-.1815-.0816.0876-.1632.169-.2506.2441-.169.1502-.1573.3568-.035.4945.9325-.6948 1.7157-1.6972 1.8089-2.98042-.2806 0-.5331.1235-.5622.33006z"/><path d="m12.8869 7.28495c-.1336-.34388-.3079-.66786-.5186-.96395 0-.00626.0058-.00626.0058-.01252.3613-.67602-.0175-1.43967-.8508-1.95294-.3316-.20422-.6594-.35385-.9568-.35552-.4501-.00253-.8303.26747-1.04785.67451-.17483-.02504-.34965-.04958-.52448-.04958-.18065 0-.35548.02454-.52447.04958-.21249-.39758-.58018-.66645-1.01654-.67451-.3056-.00566-.64489.14153-.98812.35552-.62082.38238-1.03825.90371-1.03647 1.42425.00061.17819.09351.35629.18565.52869 0 .00626.00583.00626.00583.01252-.21066.29609-.38498.62007-.51865.96395-.69347.03129-1.1014.75739-1.1014 1.76515 0 1.014.3007 1.7401 1 1.7652-.09324-.2316-.16317-.5651-.21562-.81545-.27972-.15023-.30819-.44899-.30819-.94975 0-.48823.1357-.89371.40376-1.0502-.02331.10641-.04079.22396-.05827.33037-.03497.21908.1282.38808.30886.38182.09324-1.28318.93706-2.35234 1.86946-3.04088-.04956-.09419-.325-.1723-.46299-.17124-.16115.00124-.35028.1521-.46242.26394-.05827-.35053.19231-.73235.61772-.99525.42541-.26289.85081-.1755 1.10722.04357-.09324.0313-.18648.0626-.27972.10016-.22144.08763-.28554.28167-.18648.48823.507-.25664 1.06644-.4006 1.66667-.4006.59441 0 1.1145.14396 1.6215.4006.0315-.06577.0465-.13028.0452-.19048-.0029-.12887-.0808-.23803-.2317-.29775-.0932-.03756-.1413-.06886-.2345-.10016.2564-.22533.6818-.31272 1.1072-.04357.4254.2629.6702.64472.6177.99525-.097-.09679-.3614-.26044-.5033-.26394-.1202-.00296-.372.07588-.4221.17117.9324.6948 1.9068 1.75777 2 3.04095.1748.00626.2075-.16274.1783-.38182-.0175-.10641-.0349-.21908-.0583-.31923.2681.15649.4038.55083.4038 1.03906 0 .50076-.0285.90136-.3082 1.0453-.0524.2504-.1282.4883-.2156.7199.7051-.0251 1-.7512 1-1.7652-.0117-1.00776-.4196-1.73386-1.1131-1.76515z"/><path d="m10.2667 6.66456c.3667.22872.7311.33469.9828.33547.1202.00037.2395-.02423.3696-.0728-.1224-.18152-.2623-.34427-.4138-.50076-.2389.05008-.4141.00023-.7113-.18755s-.56242-.35702-.644-.6074c-.19814-.06259-.4021-.10641-.61189-.13145.07576.45694.48663.82648 1.02859 1.16449zm1.7102 5.70934c-.0233.3067-.372.6197-.7391.845-.3613.2253-.7285.2879-.9849.1565-.2331.0814-.47783.0931-.72841.1244.21149.3201.53931.5035.92331.5.3143-.0029.6663-.1389 1.0231-.3615.6022-.3758 1.0844-.8816 1.1005-1.3885.0051-.1602-.0248-.3205-.0934-.4768-.1515.2191-.3205.4194-.5011.6009zm-4.18817-5.7295c.54195-.33801.8916-.68739.97319-1.14433-.20979.02504-.41375.06886-.61189.13145-.08158.25038-.29137.39946-.58858.58724-.2972.18152-.5278.3251-.76673.28128-.15152.15649-.29138.25077-.41375.43229.11425.04269.23885.06516.37113.0677.33326.00641.64866-.11366 1.03663-.35563zm-1.03814 6.5745c-.36713-.2253-.60023-.5383-.62354-.845-.18065-.1815-.45887-.3818-.60456-.5947-.06522.1487-.09548.301-.0939.4534.00533.5147.48321 1.0304 1.09473 1.4119.37156.2289.738.3625 1.06208.3553.36719-.0083.68001-.1908.88431-.5-.25059-.0313-.49534-.043-.72844-.1181-.25641.1251-.62354.0625-.99068-.1628z"/></g></svg>

<!-- by TradingView --><svg width="18" height="18" viewBox="0 0 18 18" fill="none" xmlns="http://www.w3.org/2000/svg">
<rect width="18" height="18" fill="#005DA9"/>
<path d="M12.4378 9.82994L12.3854 9.99987C12.2105 9.80583 12.0953 9.43821 12.0953 9.05013C12.0953 8.64326 12.2459 8.30526 12.4382 8.11121C12.3858 7.89839 12.3137 7.70024 12.2321 7.49994C11.8766 7.78787 11.6191 8.34281 11.6191 9.05013C11.6191 9.73866 11.873 10.2958 12.2168 10.5899C12.1235 10.8215 12.007 11.0406 11.873 11.2472C11.4592 11.0469 10.8939 11.1408 10.317 11.4976C9.73427 11.8606 9.37297 12.1235 9.33217 12.6117C9.10744 12.6367 8.88091 12.6367 8.65618 12.6117C8.61539 12.1235 8.25409 11.8606 7.67134 11.4976C7.09441 11.1408 6.52915 11.0406 6.11539 11.2472C5.98136 11.0406 5.86481 10.8215 5.77157 10.5899C6.11539 10.2958 6.38097 9.73866 6.38097 9.05013C6.38097 8.34907 6.10374 7.78787 5.74826 7.49994C5.66667 7.70024 5.59674 7.89839 5.55012 8.11121C5.74243 8.30526 5.90477 8.64326 5.90477 9.05013C5.90477 9.43821 5.74826 9.79957 5.57343 9.99987C5.55012 9.90598 5.54391 9.87292 5.52098 9.79407C5.46291 9.59436 5.20979 9.44981 5 9.49988C5.09324 10.7831 5.85315 11.7917 6.78556 12.4803C6.90793 12.3426 6.91959 12.136 6.75059 11.9858C6.66318 11.9107 6.58159 11.8293 6.50001 11.7417C6.75642 11.6415 7.10024 11.7104 7.43824 11.9232C7.78206 12.136 8.00933 12.2048 8.05595 12.499C7.95106 12.4677 7.85199 12.4364 7.75292 12.3926C7.54313 12.3112 7.37413 12.4114 7.32169 12.5992C7.82868 12.8558 8.38812 12.9998 8.98835 12.9998C9.58276 12.9998 10.148 12.8558 10.655 12.5992C10.6026 12.4114 10.4336 12.305 10.2238 12.3926C10.1247 12.4302 10.0256 12.4677 9.92075 12.499C9.96155 12.2111 10.1888 12.1423 10.5385 11.9232C10.8823 11.7104 11.2261 11.6415 11.4767 11.7417C11.3951 11.8293 11.3135 11.9107 11.2261 11.9858C11.0571 12.136 11.0688 12.3426 11.1911 12.4803C12.1236 11.7855 12.9068 10.7831 13 9.49988C12.7194 9.49988 12.4669 9.62338 12.4378 9.82994Z" fill="white"/>
<path d="M12.8869 7.28495C12.7533 6.94107 12.579 6.61709 12.3683 6.321C12.3683 6.31474 12.3741 6.31474 12.3741 6.30848C12.7354 5.63246 12.3566 4.86881 11.5233 4.35554C11.1917 4.15132 10.8639 4.00169 10.5665 4.00002C10.1164 3.99749 9.7362 4.26749 9.51865 4.67453C9.34382 4.64949 9.169 4.62495 8.99417 4.62495C8.81352 4.62495 8.63869 4.64949 8.4697 4.67453C8.25721 4.27695 7.88952 4.00808 7.45316 4.00002C7.14756 3.99436 6.80827 4.14155 6.46504 4.35554C5.84422 4.73792 5.42679 5.25925 5.42857 5.77979C5.42918 5.95798 5.52208 6.13608 5.61422 6.30848C5.61422 6.31474 5.62005 6.31474 5.62005 6.321C5.40939 6.61709 5.23507 6.94107 5.1014 7.28495C4.40793 7.31624 4 8.04234 4 9.0501C4 10.0641 4.3007 10.7902 5 10.8153C4.90676 10.5837 4.83683 10.2502 4.78438 9.99985C4.50466 9.84962 4.47619 9.55086 4.47619 9.0501C4.47619 8.56187 4.61189 8.15639 4.87995 7.9999C4.85664 8.10631 4.83916 8.22386 4.82168 8.33027C4.78671 8.54935 4.94988 8.71835 5.13054 8.71209C5.22378 7.42891 6.0676 6.35975 7 5.67121C6.95044 5.57702 6.675 5.49891 6.53701 5.49997C6.37586 5.50121 6.18673 5.65207 6.07459 5.76391C6.01632 5.41338 6.2669 5.03156 6.69231 4.76866C7.11772 4.50577 7.54312 4.59316 7.79953 4.81223C7.70629 4.84353 7.61305 4.87483 7.51981 4.91239C7.29837 5.00002 7.23427 5.19406 7.33333 5.40062C7.84033 5.14398 8.39977 5.00002 9 5.00002C9.59441 5.00002 10.1145 5.14398 10.6215 5.40062C10.653 5.33485 10.668 5.27034 10.6667 5.21014C10.6638 5.08127 10.5859 4.97211 10.435 4.91239C10.3418 4.87483 10.2937 4.84353 10.2005 4.81223C10.4569 4.5869 10.8823 4.49951 11.3077 4.76866C11.7331 5.03156 11.9779 5.41338 11.9254 5.76391C11.8284 5.66712 11.564 5.50347 11.4221 5.49997C11.3019 5.49701 11.0501 5.57585 11 5.67114C11.9324 6.36594 12.9068 7.42891 13 8.71209C13.1748 8.71835 13.2075 8.54935 13.1783 8.33027C13.1608 8.22386 13.1434 8.11119 13.12 8.01104C13.3881 8.16753 13.5238 8.56187 13.5238 9.0501C13.5238 9.55086 13.4953 9.95146 13.2156 10.0954C13.1632 10.3458 13.0874 10.5837 13 10.8153C13.7051 10.7902 14 10.0641 14 9.0501C13.9883 8.04234 13.5804 7.31624 12.8869 7.28495Z" fill="white"/>
<path d="M10.2667 6.66456C10.6334 6.89328 10.9978 6.99925 11.2495 7.00003C11.3697 7.0004 11.489 6.9758 11.6191 6.92723C11.4967 6.74571 11.3568 6.58296 11.2053 6.42647C10.9664 6.47655 10.7912 6.4267 10.494 6.23892C10.1968 6.05114 9.93158 5.8819 9.85 5.63152C9.65186 5.56893 9.4479 5.52511 9.23811 5.50007C9.31387 5.95701 9.72474 6.32655 10.2667 6.66456ZM11.9769 12.3739C11.9536 12.6806 11.6049 12.9936 11.2378 13.2189C10.8765 13.4442 10.5093 13.5068 10.2529 13.3754C10.0198 13.4568 9.77507 13.4685 9.52449 13.4998C9.73598 13.8199 10.0638 14.0033 10.4478 13.9998C10.7621 13.9969 11.1141 13.8609 11.4709 13.6383C12.0731 13.2625 12.5553 12.7567 12.5714 12.2498C12.5765 12.0896 12.5466 11.9293 12.478 11.773C12.3265 11.9921 12.1575 12.1924 11.9769 12.3739ZM7.78873 6.6444C8.33068 6.30639 8.68033 5.95701 8.76192 5.50007C8.55213 5.52511 8.34817 5.56893 8.15003 5.63152C8.06845 5.8819 7.85866 6.03098 7.56145 6.21876C7.26425 6.40028 7.03365 6.54386 6.79472 6.50004C6.6432 6.65653 6.50334 6.75081 6.38097 6.93233C6.49522 6.97502 6.61982 6.99749 6.7521 7.00003C7.08536 7.00644 7.40076 6.88637 7.78873 6.6444ZM6.75059 13.2189C6.38346 12.9936 6.15036 12.6806 6.12705 12.3739C5.9464 12.1924 5.66818 11.9921 5.52249 11.7792C5.45727 11.9279 5.42701 12.0802 5.42859 12.2326C5.43392 12.7473 5.9118 13.263 6.52332 13.6445C6.89488 13.8734 7.26132 14.007 7.5854 13.9998C7.95259 13.9915 8.26541 13.809 8.46971 13.4998C8.21912 13.4685 7.97437 13.4568 7.74127 13.3817C7.48486 13.5068 7.11773 13.4442 6.75059 13.2189Z" fill="white"/>
</svg>
